!!!!SEGMENT: pl-sa--l-1643--110_anonim--salve-regina.krn
!!!cenid: 16xx:1468
!!!COM: Anonim
!!!COM-rismID: pe30004985
!!!CDT:
!!!CNT:
!!!OTL: Salve Regina
!!!PDT:
!!!AGN: Sacred
!!!SMS-siglum: PL-SA
!!!SMS-shelfmark: L 1643
!!!SMS-shelfwork: 110 W
!!!SMS-variant:
!!!SMS-altvar:
!!!NIFC-rismSourceID: 1001064697
!!!NIFC-rismChildID: 1001064697
!!!NIFC-islandoraID:
!!!URL-pdf-islandora:
!!!URL-scan:
!!!ONB-nifc: UWAGA: Vita dulcedo. Coro 2: S 1, 2, A, B - pages without numbers, The record of this Salve regina is located in partbooks of second choir on theirs first pages, without numbering. UWAGA: Nie dodawać pustych linii, chyba że w rękopisie pojawiają się dodatkowe oznaczenia dotyczące pełnej obsady (a 4, a 8 itp.)
!!!AIN: 4 empty
!!!key:
**kern	**text	**kern	**text	**kern	**text	**kern	**text
*group1	*	*group1	*	*group1	*	*group1	*
*part4	*part4	*part3	*part3	*part2	*part2	*part1	*part1
*staff4	*staff4	*staff3	*staff3	*staff2	*staff2	*staff1	*staff1
*Iempty	*	*Iempty	*	*Iempty	*	*Iempty	*
*I"Baſsus 2di Chori	*	*I"Altus secundi Chori.	*	*I"Cantus 2dus Secundi Chori.	*	*I"Primus Cantus 2di Chori	*
*I'[Coro 2 B]	*	*I'[Coro 2 A]	*	*I'[Coro 2 S 2]	*	*I'[Coro 2 S 1]	*
*clefC3	*	*clefC2	*	*clefC1	*	*clefG2	*
*k[b-]	*	*k[b-]	*	*k[b-]	*	*k[b-]	*
*g:	*	*g:	*	*g:	*	*g:	*
*M2/1	*	*M2/1	*	*M2/1	*	*M2/1	*
*met(c|)	*	*met(c|)	*	*met(c|)	*	*met(c|)	*
=1-	=1-	=1-	=1-	=1-	=1-	=1-	=1-
*lig	*	*lig	*	*	*	*lig	*
!LO:TX:a:t=na 4 głoſy	!	!LO:TX:a:t=na 4 głoſy	!	!LO:TX:a:t=na 4 głoſy	!	!	!
1B-	Vi-	1f	Vi-	2.b-\	Vi-	1dd	Vi-
!	!	!	!	!LO:TX:t=P:problem=fragment nieczytelny [defekt źródła]	!	!	!
.	.	.	.	4a\yy	.	.	.
1c	.	1e	.	1g	-ta	1cc	.
*Xlig	*	*Xlig	*	*	*	*	*
=2-	=2-	=2-	=2-	=2-	=2-	=2-	=2-
2G/	-ta	2d/	-ta	2.b-\	ui-	1dd	.
2g\	ui-	2g\	vi-	.	.	.	.
.	.	.	.	4cc\	.	.	.
*	*	*	*	*	*	*Xlig	*
1g	-ta	2.b-\	-ta	1dd	-ta	2g/	-ta
.	.	.	.	.	.	2dd\	vi-
.	.	4a\	.	.	.	.	.
=3-	=3-	=3-	=3-	=3-	=3-	=3-	=3-
1c	dul-	2g,>\	.	2.cc\	dul-	2ee-X\	-ta
.	.	2.g\	dul-	.	.	2ee-\	dul-
.	.	.	.	4b-\	.	.	.
1d	-ce-	.	.	1a	-ce-	1dd	-ce-
.	.	8f\L	.	.	.	.	.
.	.	8e\J	.	.	.	.	.
!	!	!LO:TX:b:t=P:problem=# below	!	!	!	!	!
.	.	2f#X\	-ce-	.	.	.	.
=4-	=4-	=4-	=4-	=4-	=4-	=4-	=4-
2G/	-do	2g\	-do	2b-\	-do	2dd\	-do
1B-	et	1b-	et	1dd	et	1ff	et
2B-/	spes	(>4b-\	spes	2dd\	spes	2ff\	spes
.	.	4a\)	.	.	.	.	.
=5-	=5-	=5-	=5-	=5-	=5-	=5-	=5-
2c/	no-	2g\	no-	2.cc\	no-	2ee-X\	no-
2c/	-ſtra	2.g\	-ſtra	.	.	2ee-\	-ſtra
.	.	.	.	4b-\	-ſtra	.	.
1d	sal-	.	.	1a	sal-	1dd	ſal-
!	!	!LO:N:vis=4	!	!	!	!	!
.	.	8fny\	.	.	.	.	.
!	!	!LO:N:vis=4	!	!	!	!	!
.	.	8e\	.	.	.	.	.
!	!	!LO:TX:b:t=P:problem=# below	!	!	!	!	!
.	.	2f#X\	sal-	.	.	.	.
=6-	=6-	=6-	=6-	=6-	=6-	=6-	=6-
2G,>/	-ue	2g\	-ue	2b-\	-ue	2dd\	-ue
*	*	*custos:b-	*	*	*	*	*
!	!	!LO:LB:g=original	!	!	!	!	!
1g	et	1b-	et	2.b-\	et	2.dd\	et
.	.	.	.	4cc\	.	4eeny\	.
2d\	spes	2a\	spes	2dd\	spes	2ff\	spes
*	*	*	*	*custos:b-	*	*	*
!	!	!	!	!LO:LB:g=original	!	!	!
=7-	=7-	=7-	=7-	=7-	=7-	=7-	=7-
2e-X\	no-	2g\	no-	2b-\	no-	2ee-X\	no-
2c/	-ſtra	1g	-ſtra	4cc\	-ſtra	2ee-\	-ſtra
.	.	.	.	4b-\	.	.	.
*	*	*	*	*	*	*custos:dd	*
!	!	!	!	!	!	!LO:LB:g=original	!
0d	sal-	.	.	2.a\	sal-	0dd	sal-
.	.	4fny\	.	.	.	.	.
.	.	4e\	.	4g/	.	.	.
=8-	=8-	=8-	=8-	=8-	=8-	=8-	=8-
!	!	!LO:TX:t=P:problem=# below	!	!LO:TX:t=P:problem=# below	!	!	!
.	.	1f#X	sal-	1a#	.	.	.
!	!	!	!	!LO:TX:t=P:problem=♯ błędnie pod poprzednią nutą	!	!	!
!	!	!	!	!LO:TX:b:t=P:problem=# below	!	!	!
0G;;	-ue	0g;;	-ue;	0b-y;<	-ue;	0dd;;	-ue;
!LO:LB:g=original	!	!	!	!	!	!	!
=9||-	=9||-	=9||-	=9||-	=9||-	=9||-	=9||-	=9||-
1G	Ad	1g	Ad	1b-y	Ad	1dd	Ad
1c	te	1g	te	1cc	te	1eeny	te
=10-	=10-	=10-	=10-	=10-	=10-	=10-	=10-
2r	.	2r	.	2r	.	2r	.
4B-/	ſus-	4b-\	ſus-	4dd\	su-	4ff\	su-
4B-/	-pi-	4b-\	-pi-	4dd\	-spi-	4ff\	-spi-
1c	-ra-	1g	-ra-	1cc	-ra-	1ee-X	-ra-
=11-	=11-	=11-	=11-	=11-	=11-	=11-	=11-
2G/	-mus	2g\	-mus	2dd\	-mus	2dd,>\	-mus
2d\	ge-	2fny\	ge-	2any\	ge-	2dd\	ge-
!	!	!	!	!	!	!LO:TX:b:t=P:problem=# below	!
1A	-men-	1e	-men-	1a	-men-	1cc#X	-men-
=12-	=12-	=12-	=12-	=12-	=12-	=12-	=12-
2d\	-tes	2f\	-tes	2a\	-tes	2dd,>\	-tes
2B-/	et	2b-\	et	2dd\	et	2dd\	et
1c	flen-	1g	flen-	1cc	flen-	1ee-X	flen-
*	*	*	*	*custos:dd	*	*	*
!	!	!	!	!LO:LB:g=original	!	!	!
=13-	=13-	=13-	=13-	=13-	=13-	=13-	=13-
2G,>/	-tes	2g\	-tes	2dd,>\	-tes	2dd\	-tes
*	*ij	*	*	*	*	*	*
*	*	*custos:b-	*	*	*	*	*
!	!	!LO:LB:g=original	!	!	!	!	!
2B-/	ge-	2b-\	ge-	2dd\	ge-	2ff\	ge-
1e-X	-men-	2.g\	-men-	2.b-\	-men-	1ee-X	-men-
.	.	4a\	.	4cc\	.	.	.
=14-	=14-	=14-	=14-	=14-	=14-	=14-	=14-
2B-/	-tes	2b-,>\	-tes	2dd,\	-tes	2dd\	-tes
*	*	*	*	*	*	*custos:dd	*
!	!	!	!	!	!	!LO:LB:g=original	!
2G/	et	2b-\	et	2b-\	et	2dd\	et
1c	flen-	1g	flen-	1cc	flen-	1ee-X	flen-
=15-	=15-	=15-	=15-	=15-	=15-	=15-	=15-
2G,>/	-tes	2g,>\	-tes	2b-,>\	-tes	2dd\	-tes
*	*Xij	*	*	*	*	*	*
1g	in	1g	in	1b-	in	2.dd\	in
.	.	.	.	.	.	4eeny\	.
2f\	hac	2a\	hac	2a,>\	hac	2ff\	hac
=16-	=16-	=16-	=16-	=16-	=16-	=16-	=16-
2c/	la-	2g\	la-	2cc\	la-	2ee\	la-
*custos:A	*	*	*	*	*	*	*
!LO:LB:g=original	!	!	!	!	!	!	!
2A/	-crÿ-	2a\	-cri-	2cc\	-cri-	2ff\	-cri-
2B-/	-ma-	2f\	-ma-	2b-\	-ma-	2dd\	-ma-
2G/	-rum	2g\	-rum	2b-\	-rum	2ee\	-rum
=17-	=17-	=17-	=17-	=17-	=17-	=17-	=17-
0A	ua-	0e	ua-	0a	ua-	2ccny\	ua-
.	.	.	.	.	.	2.dd\	.
.	.	.	.	.	.	8cc\L	.
.	.	.	.	.	.	8b-\J	.
.	.	.	.	.	.	2cc\	.
=18-	=18-	=18-	=18-	=18-	=18-	=18-	=18-
0d;;	-le;	0f;;	-le;	0a;;	-le;	0dd;;	-le;
=19||-	=19||-	=19||-	=19||-	=19||-	=19||-	=19||-	=19||-
0G	Et	0g	Et	0b-	Et	0dd	Et
*	*	*	*	*custos:cc	*	*custos:ee-	*
!	!	!	!	!LO:LB:g=original	!	!LO:LB:g=original	!
=20-	=20-	=20-	=20-	=20-	=20-	=20-	=20-
0c	ie-	0g	ie-	0cc	ie-	0ee-X	ie-
=21-	=21-	=21-	=21-	=21-	=21-	=21-	=21-
0G	-ſum	0g	-ſum	0b-	-ſum	0dd	-ſum
=22-	=22-	=22-	=22-	=22-	=22-	=22-	=22-
!	!	!LO:N:vis=2	!	!LO:TX:t=P:problem=fragment nieczytelny [defekt źródła]	!	!	!
2r	.	4r	.	2ryy	.	2r	.
!	!	!LO:TX:t=P:problem=zbędna pauza 2r [zmiana graficzna]	!	!	!	!	!
!	!	!LO:N:vis=2	!	!	!	!	!
.	.	4r	.	.	.	.	.
*	*	*custos:dd	*	*	*	*	*
!	!	!LO:LB:g=original	!	!	!	!	!
4B-/	be-	4dd\	be-	4b-\	be-	4dd\	be-
4A/	-ne-	4cc\	-ne-	4cc\	-ne-	4eeny\	-ne-
1B-	-dÿ-	1b-	-di-	1dd	-di-	1ff	-di-
=23-	=23-	=23-	=23-	=23-	=23-	=23-	=23-
2f\	-ctum	2a\	-ctum	2a\	-ctum	2ff\	-ctum
1e-X	fru-	1g	fru-	2.b-\	fru-	1gg	fru-
.	.	.	.	4cc\	.	.	.
2d\	-ctum	2d/	-ctum	2dd\	-ctum	2ff\	-ctum
=24-	=24-	=24-	=24-	=24-	=24-	=24-	=24-
2c/	ven-	2g\	ven-	4g/	ven-	2ee-X\	ven-
.	.	.	.	4a\	.	.	.
2B-/	-tris	4d/	-tris	2.b-\	-tris	2dd\	-tris
.	.	4f\	.	.	.	.	.
1f	tu-	1f	tu-	.	.	1cc	tu-
.	.	.	.	8a\L	.	.	.
.	.	.	.	8g\J	.	.	.
.	.	.	.	2a\	tu-	.	.
=25-	=25-	=25-	=25-	=25-	=25-	=25-	=25-
!	!	!LO:TX:b:t=P:problem=# below	!	!	!	!	!
!	!	!LO:SIC:v:s:t=2fn\	!	!	!	!	!
2B-/	-i	2f#X\	-i	2b-,>\	-i	2dd,>\	-i
*custos:B-	*	*	*	*	*	*	*
!LO:LB:g=original	!	!	!	!	!	!	!
2B-/	no-	2fny\	no-	2b-\	no-	2dd\	no-
2f\	-bis	2a\	-bis	2cc\	-bis	2cc\	-bis
2g\	poſt	2g\	poſt	2g/	poſt	2b-/	poſt
*	*	*	*	*custos:a	*	*	*
!	!	!	!	!LO:LB:g=original	!	!	!
=26-	=26-	=26-	=26-	=26-	=26-	=26-	=26-
2d\	hoc	2f\	h[oc]	2a,>\	hoc	2a/	hoc
2d\	no-	2a\	no-	2dd\	no-	2ff\	no-
!	!	!	!	!LO:TX:t=P:problem=niejednoznaczna wysokość dźwięku [defekt źródła]	!	!	!
2A/	-bis	2a\	-bis	2cc\yy	-bis	2eeny\	-bis
*	*	*	*	*	*	*custos:dd	*
!	!	!	!	!	!	!LO:LB:g=original	!
2B-/	poſt	2f\	poſt	2b-\	poſt	2dd\	poſt
=27-	=27-	=27-	=27-	=27-	=27-	=27-	=27-
2F/	hoc	2f\	hoc	2a\	.	2cc,>\	hoc
2f\	e-	2a\	e-	2cc\	e-	2ff\	e-
*	*	*custos:b-	*	*	*	*	*
!	!	!LO:LB:g=original	!	!	!	!	!
2.B-/	-xi-	2.b-\	-xe-	2.dd\	-xi-	2.ff\	-xi-
4B-/	-li-	4b-\	-li-	4dd\	-li-	4ff\	-li-
=28-	=28-	=28-	=28-	=28-	=28-	=28-	=28-
2c/	-um	2g\	-um	2cc,>\	-um	2ee-X\	-um
2G/	o-	2.g\	o-	2b-\	o-	2dd\	o-
1d	-ſten-	.	.	1a	-ſten-	1dd	-ſten-
.	.	8f\L	.	.	.	.	.
.	.	8e\J	.	.	.	.	.
!	!	!LO:TX:b:t=P:problem=# below	!	!	!	!	!
.	.	2f#X\	-ſten-	.	.	.	.
=29-	=29-	=29-	=29-	=29-	=29-	=29-	=29-
!	!	!	!	!LO:N:acc=#	!	!	!
0G;>	-de;	0g;;	-de;	0bn;;	-de;	0dd;;	-de;
*custos:d	*	*	*	*	*	*	*
!LO:LB:g=original	!	!	!	!	!	!	!
=30||-	=30||-	=30||-	=30||-	=30||-	=30||-	=30||-	=30||-
1d	O	1fny	O	1dd	O	0r	.
2eny\	.	2e/	.	2cc\	.	.	.
2f\	.	2a\	.	2a\	.	.	.
=31-	=31-	=31-	=31-	=31-	=31-	=31-	=31-
1.g	.	1.g	pi-	1.b-y	pi-	1dd	O
.	.	.	.	.	.	2eeny\	.
2f\	.	2a\	.	2a\	-a,	2ff\	.
=32-	=32-	=32-	=32-	=32-	=32-	=32-	=32-
*	*	*	*	*	*	*lig	*
1e-X	pi-	1g	.	2.b-\	o	1gg	.
*	*	*	*	*custos:cc	*	*	*
!	!	!	!	!LO:LB:g=original	!	!	!
.	.	.	.	4cc\	.	.	.
2d\	-a	2a,>\	-a	2.dd\	.	1ff	.
2d\	o	2a\	o	.	.	.	.
.	.	.	.	8cc\L	.	.	.
.	.	.	.	8b-\J	.	.	.
*	*	*	*	*	*	*Xlig	*
=33-	=33-	=33-	=33-	=33-	=33-	=33-	=33-
!	!	!	!	!LO:TX:b:t=P:problem=# below	!	!	!
1A	pi-	1a	pi-	1cc#X	pi-	1ee	pi-
2d\	-a	2a,>\	-a	2dd,>\	-a	2dd\	-a
2G/	o	2g\	o	2b-\	o	2dd\	o
*	*	*	*	*	*	*custos:ee-	*
!	!	!	!	!	!	!LO:LB:g=original	!
=34-	=34-	=34-	=34-	=34-	=34-	=34-	=34-
1c	pi-	1g	pi-	1ccny	pi-	1ee-X	pi-
*	*	*custos:g	*	*	*	*	*
!	!	!LO:LB:g=original	!	!	!	!	!
2G/	-a	2g,>\	-a	2b-,>\	-a	1dd	-a
1g\	o	1g\	o	1b-\	o	.	.
=35-	=35-	=35-	=35-	=35-	=35-	=35-	=35-
.	.	.	.	.	.	1r	.
2f\	.	2a\	.	2a\	pi-	.	.
2e-X\	.	2g\	.	2g/	.	2gg\	o
2d\	.	2d/	.	2dd\	-a	2ff\	.
=36-	=36-	=36-	=36-	=36-	=36-	=36-	=36-
2c\	.	0.g	pi-	2ee-X\	o	2ee-X\	.
!LO:TX:b:t=P:problem=# below	!	!	!	!	!	!	!
!LO:N:acc=#	!	!	!	!	!	!	!
2Bn/	.	.	.	4cc\	.	2dd\	.
.	.	.	.	4g/	.	.	.
*custos:c	*	*	*	*	*	*	*
!LO:LB:g=original	!	!	!	!	!	!	!
0c	pi-	.	.	0cc	pi-	2.cc\	.
.	.	.	.	.	.	4dd\	.
=37-	=37-	=37-	=37-	=37-	=37-	=37-	=37-
.	.	.	.	.	.	1ee-X	pi-
!	!	!	!	!LO:N:acc=#	!	!	!
0G;;	-a;	0g;;	-a;	0bn;;	-a;	0dd;;	-a;
=-	=-	=-	=-	=-	=-	=-	=-
*-	*-	*-	*-	*-	*-	*-	*-
!!!system-decoration: [(g1)]
!!!RDF**kern: > = above
!!!RDF**kern: < = below
!!!ENC: Andrzej Kubiczek
!!!END: 2021-10-31
!!!EED: Jędrzej Mróz
!!!ESR: 2021-11-04
!!!YEC: Copyright 2022 Narodowy Instytut Fryderyka Chopina (https://polishscores.org)
!!!YEM: License CC-BY-4.0 (https://creativecommons.org/licenses/by/4.0)
